svg/swift.svg

<svg viewBox="0 0 20 20" xmlns="http://www.w3.org/2000/svg">
<rect width="100%" height="100%" fill="#F05138"/>
<path d="M16.119 12.4701L16.1768 12.2312C17.0509 8.761 14.9273 4.63712 11.3127 2.47412C12.8877 4.61612 13.5938 7.21487 12.9795 9.475C12.9192 9.67187 12.8614 9.87137 12.78 10.0682C12.6819 9.9974 12.5763 9.93754 12.465 9.88975C9.76585 8.11646 7.26169 6.0628 4.99429 3.763C6.35703 5.78161 7.87447 7.69135 9.53292 9.475C8.36479 8.82137 5.13079 6.4615 3.07017 4.59512C3.33065 5.01762 3.62194 5.42034 3.94167 5.8C5.64792 7.98137 7.87917 10.6589 10.5645 12.7221C8.68242 13.8719 6.02329 13.9716 3.38779 12.7221C2.74049 12.4202 2.12494 12.0543 1.55029 11.6301C2.72953 13.5096 4.44734 14.9905 6.48004 15.88C8.97904 16.951 11.4675 16.8906 13.3208 15.8984C15.174 14.9061 13.3418 15.8984 13.3418 15.88C13.4205 15.8406 13.4993 15.7802 13.5807 15.7409C14.4705 15.2841 16.2057 14.8274 17.169 16.6517C17.4473 17.0691 17.9408 14.6909 16.119 12.4701V12.4701Z" fill="white"/>
</svg>

<svg xmlns="http://www.w3.org/2000/svg" viewBox="0 0 20 20">
  <rect width="100%" height="100%" fill="#F05138"/>
  <path fill="#fff" d="m16.12 12.47.06-.24c.87-3.47-1.25-7.6-4.87-9.76 1.58 2.15 2.28 4.74 1.67 7-.06.2-.12.4-.2.6a45.83 45.83 0 0 1-7.79-6.3 47.05 47.05 0 0 0 4.54 5.7A50.01 50.01 0 0 1 3.07 4.6c.26.42.55.82.87 1.2 1.7 2.18 3.94 4.86 6.62 6.92-1.88 1.15-4.54 1.25-7.17 0-.65-.3-1.27-.67-1.84-1.09a11.05 11.05 0 0 0 4.93 4.25c2.5 1.07 4.99 1.01 6.84.02 1.85-1 .02 0 .02-.02l.24-.14c.89-.46 2.63-.91 3.59.91.28.42.77-1.96-1.05-4.18Z"/>
</svg>
